assets/images/icons/src/female.svg

<?xml version="1.0" encoding="utf-8"?>
<!-- Generated by IcoMoon.io -->
<!DOCTYPE svg PUBLIC "-//W3C//DTD SVG 1.1//EN" "http://www.w3.org/Graphics/SVG/1.1/DTD/svg11.dtd">
<svg version="1.1" xmlns="http://www.w3.org/2000/svg" xmlns:xlink="http://www.w3.org/1999/xlink" width="10" height="14" viewBox="0 0 10 14">
<path fill="#444444" d="M10 8.25q0 0.312-0.219 0.531t-0.531 0.219q-0.398 0-0.625-0.336l-1.773-2.664h-0.352v1.031l1.93 3.211q0.070 0.117 0.070 0.258 0 0.203-0.148 0.352t-0.352 0.148h-1.5v2.125q0 0.359-0.258 0.617t-0.617 0.258h-1.25q-0.359 0-0.617-0.258t-0.258-0.617v-2.125h-1.5q-0.203 0-0.352-0.148t-0.148-0.352q0-0.141 0.070-0.258l1.93-3.211v-1.031h-0.352l-1.773 2.664q-0.227 0.336-0.625 0.336-0.312 0-0.531-0.219t-0.219-0.531q0-0.227 0.125-0.414l2-3q0.57-0.836 1.375-0.836h3q0.805 0 1.375 0.836l2 3q0.125 0.187 0.125 0.414zM6.75 2q0 0.727-0.512 1.238t-1.238 0.512-1.238-0.512-0.512-1.238 0.512-1.238 1.238-0.512 1.238 0.512 0.512 1.238z"></path>
</svg>

<svg xmlns="http://www.w3.org/2000/svg" width="10" height="14" viewBox="0 0 10 14"><path fill="#444" d="M10 8.25q0 .312-.219.531T9.25 9q-.398 0-.625-.336L6.852 6H6.5v1.031l1.93 3.211q.07.117.07.258 0 .203-.148.352T8 11H6.5v2.125q0 .359-.258.617T5.625 14h-1.25q-.359 0-.617-.258t-.258-.617V11H2q-.203 0-.352-.148T1.5 10.5q0-.141.07-.258L3.5 7.031V6h-.352L1.375 8.664Q1.148 9 .75 9q-.312 0-.531-.219T0 8.25q0-.227.125-.414l2-3Q2.695 4 3.5 4h3q.805 0 1.375.836l2 3q.125.187.125.414zM6.75 2q0 .727-.512 1.238T5 3.75t-1.238-.512T3.25 2 3.762.762 5 .25t1.238.512T6.75 2z"/></svg>
